X: 41461
T: Two To The Bar
R: polka
M: 2/4
K: Eminor
e>f ge|fd BA|G>A BG|AF DF|
GA/G/ FG/F/|EF GA|B>d ed|1 e3 d:|2 e3 f||
gd Bg|{g/}af e/f/g/e/|dB A/B/c/A/|BG EF|
GA/G/ FG/F/|EF GA|B>d ed|1 e3 f:|2 e4||

